X: 6
T: Green Grow The Rushes
R: barndance
M: 4/4
L: 1/8
K: Gmaj
|: (3DEF |G2 B>^A B>GG>B | (3AAA e>^d e>AA>B |
(3ccc e>c (3BBB d>B | (3ABc B>A G>E :|
|: D>E |G>gg>f g>dd>g | e>a-a>b a>ge>f |
[1 g2 g>a g>ed>B | A2 B>A G>E :|
[2 g>be>g d>gB>G | A>cB>A G>E |]


Tune 1936	Setting 15357

